X:1
T:The fields abroad - Morley
T:#
%%score [ 1 2 3 4 ]
L:1/8
Q:1/4=120
M:4/4
K:G
V:1 treble nm="Soprano" snm="S"
V:2 treble nm="Alto" snm="A"
V:3 treble-8 nm="Tenor" snm="T"
V:4 bass nm="Bass" snm="B"
V:1
 E8 | B6 B2 |"^The fields abroad" G2 E2 G4 | F4 B4- | B4"^Thomas Morley\n(1557-1603)" ^A4 | %5
w: The|fields a-|broad with spang-|led flow'rs|* are|
 (B4 G4) | F8 | z8 | z4 z2 B2 | e6 e2 | d2 B2 d4 | ^c4 B4- | B4 B4- | B4 ^A4 | B4 d4 | ^c4 c4 | %16
w: gild\- *|ed,||the|fields a-|broad with spang-|led flow'rs|* are|* gild-|ed, with|spang- led|
 ^c2 B2 (B4- | B4 ^A4) | B4 B4 | A2 G2 F4 | E2 G2 F2 E2 | ^D4 E2 B2 | B2 ^c2 d4 | ^c4 z4 | %24
w: flow'rs are gild\-||ed. The|meads are mant-|led, the meads are|mant- led, the|meads are mant-|led,|
 z4 z2 A2 | d2 B2 B4 | G2 c2 B4 | B4 e4 | ^d4 d4 | e4 B4 | c8 | B4 B4 | d4 B4 | A4 G4- | G4 F4 | %35
w: the|meads are mant-|led, and clos-|es; In|May, each|bush ar-|ray-|ed, and|sweet, and|sweet wild|* ros-|
 G4 B4 | B2 B2 ^A4 | B4 B4 | d2 d2 A3 B | c4 G4 | (B4 A2 G2 | F2) E2 F4 | F4 z2 F2 | A2 A2 E3 F | %44
w: es, and|sweet wild ros-|es. The|night- in- gale her|bower hath|gai\- * *|* ly build-|ed, the|night- in- gale her|
 G4 F2 B2- | B2 A2 G2 F2- | FE (E4 ^D2) | E4 B4 |: B2 B2 G2 A2 | B4 B4 | B2 B2 (A2 F2) | %51
w: bower hath gai\-|* ly, hath gai\-|* ly build\- *|ed, and|full of kind- ly|lust, and|love's in- spir\- *|
 ^G4 z2 B2 | d3 c B2 e2 | d3 c B2 c2 | B3 A ^G2 A2 | ^G4 A2 B2 | d3 c B2 A2 |1 B4 B2 B2 | B4 B4 ||1 %59
w: ing, "I|love, I love, I|love, I love, I|love, I love," she|sings, hark: "I|love, I love," she|sings, hark: her|mate de-|
 B8 | B4 B4 :|2 B4 B2 B2 || B4 B4 | B8 | !fermata!B8 |] %65
w: sir-|ing; And|sings, hark: her|mate de-|sir-|ing.|
V:2
 z8 | B,8 | E6 E2 | D2 B,2 D2 D2 | ^C8 | B,4 (E4- | E2 ^D^C D4) | E4 B,4 | D3 (^CB,A,) B,2- | %9
w: |The|fields a-|broad with spang- led|flow'rs|are gild\-||ed, with|spang- led * * flow'rs|
 B,2 (^A,^G,) A,4 | B,4 F4 | G6 G2 | F2 D2 F4 | E4 F4 | F4 F4 | A6 A2 | G4 E4 | F8 | ^D4 z2 B,2 | %19
w: * are * gild-|ed, the|fields with|spang- led flow'rs|are gild-|ed, with|spang- led|flow'rs are|gild-|ed. The|
 ^C2 E2 ^D4 | E2 D2 D2 B,2 | B,4 B,2 G2 | F2 A4 ^G2 | A2 E2 E2 F2 | G4 F2 F2 | F2 E2 ^D4 | %26
w: meads are mant-|led, the meads are|mant- led, the|meads are mant-|led, the meads are|mant- led, the|meads are mant-|
 E2 E2 ^D4 | E4 z4 | z4 B4 | ^G4 G4 | A4 A4 | G8 | F4 D4 | F4 D4 | D8 | D4 D4 | G2 E2 F4 | ^D4 z4 | %38
w: led, and clo-|ses;|In|May, each|bush ar-|ray-|ed, and|sweet wild|ros-|es, and|sweet wild ros-|es.|
 z4 F4 | A2 A2 E3 F | G2 G2 F2 E2 | (^D2 E2) D2 B,2 | D2 D2 A,3 B, | C4 G,2 C2 | B,2 D4 D2 | %45
w: The|night- in- gale her|bower hath gai- ly|build\- * ed, the|night- in- gale her|bower hath gai-|ly build- ed,|
 (G2 F2) E2 C2 | B,8 | B,4 G4 |: F2 D2 E2 E2 | ^D4 G4 | F2 G2 (F2 B,2) | B,4 z2 G2 | G3 G G2 G2 | %53
w: hath * gai- ly|build-|ed, and|full of kind- ly|lust, and|love's in- spir\- *|ing, "I|love, I love, I|
 G3 E G2 G2 | G3 E E2 D2 | E4 E2 G2 | B3 A F2 E2 |1 F4 ^G2 =G2 | D2 E2 (F2 G2) ||1 (D2 E2 F4) | %60
w: love, I love, I|love, I love," she|sings, hark: "I|love, I love," she|sings, hark: her|mate de- sir\- *||
 ^G4 =G4 :|2 F4 ^G2 =G2 || D2 E2 (F2 G2 | D2 E2 F4) | !fermata!^G8 |] %65
w: ing; And|sings, hark: her|mate de- sir\- *||ing.|
V:3
 z8 | z8 | z8 | z8 | z8 | z4 E4 | B6 B2 | G2 E2 G2 G2 | F4 F4 | E8 | F4 B4 | e6 e2 | d2 B2 d2 d2 | %13
w: |||||The|fields a-|broad with spang- led|flow'rs are|gild-|ed, the|fields a-|broad with spang- led|
 ^c4 c4 | d8 | e2 f2 e4- | e2 d2 B2 B2 | ^c8 | B4 z4 | z8 | z2 B2 A2 G2 | F4 E2 e2 | d2 ^c2 B4 | %23
w: flow'rs are|gild-|ed, with spang\-|* led flowers are|gild-|ed.||The meads are|mant- led, the|meads are mant-|
 A2 A2 B2 d2- | d2 ^c2 d2 A2 | B2 G2 F4 | E2 A2 F4 | ^G4 !courtesy!=g4 | f4 f4 | e8 | e8 | e8 | %32
w: led, the meads are|* mant- led, the|meads are mant-|led, and clos-|es; In|May, each|bush|ar-|ray-|
 A4 B4 | d4 B4 | A8 | B4 z2 d2 | e2 B2 ^c4 | B4 z4 | B4 d2 d2 | A3 B c2 c2 | (GABc d2) e2 | %41
w: ed, and|sweet wild|ros-|es, and|sweet wild ros-|es.|The night- in-|gale her bower hath|gai\- * * * * ly,|
 B2 c2 B4 | B4 F2 A2 | A2 E3 F G2 | G2 D2 A2 (GA | Bc d2) B2 A2- | A2 G2 F4 | ^G4 e4 |: %48
w: gai- ly build-|ed, the night-|in- gale her bower,|her bower hath gai\- *|* * * ly, gai\-|* ly build-|ed, and|
 d2 B2 c2 c2 | B4 e4 | ^d2 e2 (e2 d2) | e4 z2 d2 | B3 e d2 c2 | B3 c d2 e2 | d3 c B2 A2 | %55
w: full of kind- ly|lust and|love's in- spir\- *|ing, "I|love, I love, I|love, I love, I|love, I love," she|
 B4 ^c2 d2 | g3 e ^d2 e2 |1 ^d4 e2 e2 | f2 g2 (d2 e2) ||1 (f2 e4 ^d2) | e4 e4 :|2 ^d4 e2 e2 || %62
w: sings, hark: "I|love, I love," she|sings, hark: her|mate de- sir\- *||ing; And|sings, hark: her|
 f2 g2 (d2 e2 | f2 e4 ^d2) | !fermata!e8 |] %65
w: mate de- sir\- *||ing.|
V:4
 z8 | z8 | z8 | z8 | z8 | z8 | z4 B,,4 | E,6 E,2 | D,2 B,,2 D,4 | ^C,8 | B,,8 | z8 | z8 | z4 F,4 | %14
w: ||||||The|fields a-|broad with spang-|led|flow'rs,|||the|
 B,6 B,2 | A,2 F,2 A,2 A,2 | E,4 G,4 | F,8 | B,,4 z4 | z8 | z2 B,,2 D,2 E,2 | B,,4 E,4 | z8 | %23
w: fields a-|broad with spang- led|flowers are|gild-|ed.||The meads are|mant- led,||
 z2 A,2 G,2 F,2 | E,4 D,2 D,2 | B,,2 E,2 B,,4 | C,2 A,,2 B,,4 | E,4 E,4 | B,4 B,4 | E,4 E,4 | A,8 | %31
w: the meads are|mant- led, the|meads are mant-|led, and clos-|es; In|May, each|bush ar-|ray-|
 E,4 E,4 | D,4 G,4 | D,8- | D,8 | G,,4 G,4 | E,2 G,2 F,4 | B,,4 z4 | z8 | z8 | z8 | z8 | %42
w: ed, and|sweet wild|ros\-||es, and|sweet wild ros-|es.|||||
 z2 B,,2 D,2 D,2 | A,,3 B,, C,2 C,2 | (G,,A,, B,,C, D,2) G,2- | G,2 D,2 E,2 A,,2 | B,,8 | E,4 z4 |: %48
w: The night- in-|gale her bower hath|gai\- * * * * ly,|* hath gai- ly|build-|ed,|
 z8 | z4 E,4 | B,2 G,2 (A,2 B,2) | E,4 z2 G,2 | G,3 C, G,2 C,2 | G,3 A, G,2 E,2 | G,3 A, E,2 =F,2 | %55
w: |and|love's in- spir\- *|ing, "I|love, I love, I|love, I love, I|love, I love, she|
 E,4 A,2 G,2 | G,3 A, B,2 C2 |1 B,4 E,2 E,2 | B,4 B,4 ||1 B,8 | E,4 z4 :|2 B,4 E,2 E,2 || B,4 B,4 | %63
w: sings, hark: "I|love, I love," she|sings, hark: her|mate de-|sir-|ing;|sings, hark: her|mate de-|
 B,8 | !fermata!E,8 |] %65
w: sir-|ing.|

